X:1
T: The Humours of Cappa
C:
R:Jig
Q:180
K:Am
M:6/8
L:1/16
G2|E4A2 c2A2G2|E2D2E2 G2E2D2|E4A2 c2A2G2|E2D2E2 A2B2c2|E4A2 c2A2G2|E2D2E2 G2E2D2|d2e2d2 c4A2|G2E2D2 A4G2|
E4A2 c2A2G2|E2D2E2 G2E2D2|E4A2 c2A2G2|E2D2E2 A2B2c2|E4A2 c2A2G2|E2D2E2 G2E2D2|d2e2d2 c4A2|G2E2D2 A4A2|
A4d2 f2e2d2|e2d2e2 c2A2G2|A4d2 f2e2d2|c2A2G2 E2D2D2|A4d2 f2e2d2|e2d2e2 c2A2G2|d2e2d2 c4A2|G2E2D2 A4A2|
A4d2 f2e2d2|e2d2e2 c2A2G2|A4d2 f2e2d2|c2A2G2 E2D2D2|A4d2 f2e2d2|e2d2e2 c2A2G2|d2e2d2 c4A2|G2E2D2 A4||
